assets/Watch/Flat/watch_flat.svg

<svg width="32" height="32" viewBox="0 0 32 32" fill="none" xmlns="http://www.w3.org/2000/svg">
<path d="M9 3C9 2.44771 9.44772 2 10 2H22C22.5523 2 23 2.44772 23 3V7.25209C21.0298 5.83476 18.6124 5 16 5C13.3876 5 10.9702 5.83476 9 7.25209V3Z" fill="#3F5FFF"/>
<path d="M16 27C18.6124 27 21.0298 26.1652 23 24.7479V29C23 29.5523 22.5523 30 22 30H10C9.44772 30 9 29.5523 9 29V24.7479C10.9702 26.1652 13.3876 27 16 27Z" fill="#3F5FFF"/>
<path d="M27 14C26.4477 14 26 14.4477 26 15V17C26 17.5523 26.4477 18 27 18H28.5C29.0523 18 29.5 17.5523 29.5 17V15C29.5 14.4477 29.0523 14 28.5 14H27Z" fill="#3F5FFF"/>
<path d="M28 16C28 22.6274 22.6274 28 16 28C9.37258 28 4 22.6274 4 16C4 9.37258 9.37258 4 16 4C22.6274 4 28 9.37258 28 16Z" fill="#A4AEEB"/>
<path d="M25 16C25 20.9706 20.9706 25 16 25C11.0294 25 7 20.9706 7 16C7 11.0294 11.0294 7 16 7C20.9706 7 25 11.0294 25 16Z" fill="#5235A6"/>
<path d="M16 8C15.4477 8 15 8.44772 15 9V15C15 15.2108 15.0652 15.4064 15.1766 15.5676L11.9103 19.2092C11.5415 19.6203 11.5758 20.2526 11.987 20.6213C12.3981 20.9901 13.0303 20.9558 13.3991 20.5446L16.7376 16.8225C17.054 16.4698 17.0737 15.9543 16.8132 15.5821C16.9308 15.4181 17 15.2171 17 15V9C17 8.44772 16.5523 8 16 8Z" fill="white"/>
<path d="M18 16C18 17.1046 17.1046 18 16 18C14.8954 18 14 17.1046 14 16C14 14.8954 14.8954 14 16 14C17.1046 14 18 14.8954 18 16Z" fill="#FCD53F"/>
</svg>

<svg xmlns="http://www.w3.org/2000/svg" width="32" height="32" fill="none"><path fill="#3F5FFF" d="M9 3a1 1 0 0 1 1-1h12a1 1 0 0 1 1 1v4.252A11.945 11.945 0 0 0 16 5c-2.612 0-5.03.835-7 2.252V3ZM16 27c2.612 0 5.03-.835 7-2.252V29a1 1 0 0 1-1 1H10a1 1 0 0 1-1-1v-4.252A11.946 11.946 0 0 0 16 27ZM27 14a1 1 0 0 0-1 1v2a1 1 0 0 0 1 1h1.5a1 1 0 0 0 1-1v-2a1 1 0 0 0-1-1H27Z"/><path fill="#A4AEEB" d="M28 16c0 6.627-5.373 12-12 12S4 22.627 4 16 9.373 4 16 4s12 5.373 12 12Z"/><path fill="#5235A6" d="M25 16a9 9 0 1 1-18 0 9 9 0 0 1 18 0Z"/><path fill="#fff" d="M16 8a1 1 0 0 0-1 1v6c0 .21.065.406.177.568l-3.267 3.641a1 1 0 1 0 1.49 1.336l3.338-3.723a1 1 0 0 0 .075-1.24A.995.995 0 0 0 17 15V9a1 1 0 0 0-1-1Z"/><path fill="#FCD53F" d="M18 16a2 2 0 1 1-4 0 2 2 0 0 1 4 0Z"/></svg>
